svgs/sharp-solid/signs-post.svg

<svg xmlns="http://www.w3.org/2000/svg" viewBox="0 0 512 512"><!--! Font Awesome Pro 6.6.0 by @fontawesome - https://fontawesome.com License - https://fontawesome.com/license (Commercial License) Copyright 2024 Fonticons, Inc. --><path d="M224 0l64 0 0 32 160 0 64 64-64 64L32 160 32 32l192 0 0-32zm0 224l0-32 64 0 0 32 192 0 0 128L64 352 0 288l64-64 160 0zm64 160l0 128-64 0 0-128 64 0z"/></svg>

<svg xmlns="http://www.w3.org/2000/svg" viewBox="0 0 512 512"><!--! Font Awesome Pro 6.4.2 by @fontawesome - https://fontawesome.com License - https://fontawesome.com/license (Commercial License) Copyright 2023 Fonticons, Inc. --><path d="M224 0h64V32H448l64 64-64 64H32V32H224V0zm0 224V192h64v32H480V352H64L0 288l64-64H224zm64 160V512H224V384h64z"/></svg>
